X: 32
T:Otero Covelo. Ejercicio 3
M:C
L:1/2
C:Enrique Otero Covelo
K:C
GF | ED | C2 |: B,C | D C | D E| F E | F G | A G | A B |c B |A B | A G |
 F G | F E | D E | D C :| B,2 | "repetir en negras" C2

